packages/ui-icons/src/Basic/16/VIP_16.svg

<svg xmlns="http://www.w3.org/2000/svg" viewBox="0 0 20 20"><path d="m13.69 4-1 2h-.34l-1.43-4H9L7.64 6h-.33l-1-2H4v8a6 6 0 0 0 12 0V4ZM5 5h.69l1 2h1.67l1.36-4h.5l1.43 4h1.66l1-2H15v4H5Zm10 7a5 5 0 0 1-10 0v-2h10Z"/></svg>

<svg id="ready" xmlns="http://www.w3.org/2000/svg" viewBox="0 0 20 20"><title>Megaicons_work_16_1.8_cp</title><path d="M13.69,4l-1,2h-.34L10.92,2H9L7.64,6H7.31l-1-2H4v8a6,6,0,0,0,12,0V4ZM5,5h.69l1,2H8.36L9.72,3h.5l1.43,4h1.66l1-2H15V9H5Zm10,7A5,5,0,0,1,5,12V10H15Z"/></svg>
